modules/stroke-7/icons/note.svg

<?xml version="1.0" encoding="utf-8"?>
<!-- Generated by IcoMoon.io -->
<!DOCTYPE svg PUBLIC "-//W3C//DTD SVG 1.1//EN" "http://www.w3.org/Graphics/SVG/1.1/DTD/svg11.dtd">
<svg version="1.1" xmlns="http://www.w3.org/2000/svg" xmlns:xlink="http://www.w3.org/1999/xlink" width="32" height="32" viewBox="0 0 32 32">
<g id="icomoon-ignore">
</g>
<path d="M27.78 4.198c-0.312-0.312-0.722-0.468-1.131-0.468s-0.819 0.156-1.131 0.468l-4.706 4.705v-0.891h-17.060v20.259h20.259v-17.060h-0.981l4.75-4.751c0.625-0.624 0.625-1.637 0-2.262zM22.944 27.204h-18.126v-18.126h15.819l-8.356 8.355v2.307h2.219l8.444-8.445v15.908zM27.026 5.706l-12.967 12.968h-0.711v-0.8l12.924-12.924c0.135-0.135 0.294-0.155 0.376-0.155s0.242 0.020 0.377 0.156c0.136 0.136 0.157 0.295 0.157 0.377s-0.020 0.24-0.157 0.377z" fill="#000000"></path>
</svg>

<svg xmlns="http://www.w3.org/2000/svg" width="32" height="32"><path d="M27.78 4.198c-.312-.312-.722-.468-1.131-.468s-.819.156-1.131.468l-4.706 4.705v-.891H3.752v20.259h20.259v-17.06h-.981l4.75-4.751a1.599 1.599 0 0 0 0-2.262zm-4.836 23.006H4.818V9.078h15.819l-8.356 8.355v2.307H14.5l8.444-8.445v15.908zm4.082-21.498L14.059 18.674h-.711v-.8L26.272 4.95a.53.53 0 0 1 .753.001.533.533 0 0 1 0 .754z"/></svg>
